!!!COM: Fe/licien David
!!!CNT: Francais
!!!TXO: Francais
!!!OTL: Saltarelle
!!!LYR: Antony Deschamps
!!!ENC: Jacob Pegg
!!!YOR: Romantic French Song 1830-1870, David Tunley, ed., New York: Garland Publishing, Inc., 1995
!!!ODT: 1843/
!!NB: Vocal melody and text only encoded.
!!NB: Only first strophe encoded.
**kern	**silbe
*clef G2	*
*k[f#c#]	*
*M2/4	*
=-	=-
4r	.
{4a	{Ve-
=1	=1
4dd	-nez,
4dd	en-
=2	=2
8dd	-fants
(16f#	de
16g)	|
8a	la
8b	Ro-
=3	=3
2cc#	-ma-
=4	=4
4cc#	-gne,
8a	Tous
8b	chan-
=5	=5
8cc#	-tant
(16dd	de
16cc#)	|
8b	gais
8cc#	re-
=6	=6
4a}	-frains;}
8r	.
{8a	{Quit-
=7	=7
4dd	-tez
4dd	le
=8	=8
8dd	plai-
(16f#	-ne et
16g)	|
8a	la
8b	mon-
=9	=9
2cc#	-ta-
=10	=10
4cc#	-gne,
8b	Pour
8cc#	dan-
=11	=11
8a	-ser
8dd	aux
8.cc#	tam-
16dd	-bou-
=12	=12
2dd}	-rins!}
=13	=13
2r	.
=14	=14
2r	.
=15	=15
2r	.
=16	=16
4r	.
{8ff#	{Ro-
16ee	-me
16dd	la
=17	=17
8cc#	sain-
(16b	-te
16a)	|
8b	vous
8cc#	les
=18	=18
8a	don-
8f#	-ne
8g#	Ces
8a	plai-
=19	=19
8b	-sirs
(16a	que
16b)	|
8cc#	la
8dd	ma-
=20	=20
8cc#	-do-
16cc#}	-ne,}
16r	.
{8ff#	{De
(16ee	son
16dd)	|
=21	=21
8cc#	che\-
(16b	-ne
16a)	|
8b	vous
8cc#	par-
=22	=22
8a	-don-
8f#	-ne,
8g#	Se
8a	voi-
=23	=23
8e	-lant
8cc#	quand
8.b	il
16a	le
=24	=24
2a}	faut;}
=25	=25
2r	.
=26	=26
2r	.
=27	=27
4r	.
{8a	{Le
16g	car-
16f#	-na-
=28	=28
8e	-val
8f#	a-
8g	-vec
8a	son
=29	=29
8b	mas-
16a	-que,
16r	.
8dd	Ses
(16cc#	pail-
16dd)	|
=30	=30
8ee	-let
8a	tes
8dd	sur
(16cc#	la-
16dd)	|
=31	=31
8ee	bas-
16a}	-que,}
16r	.
{8a	Ses
(16g	gre-
16f#)	|
=32	=32
8e	-lots,
8f#	sou
8g	cri
8a	fan-
=33	=33
8b	-tas-
16a	-que,
16r	.
8dd	Met
(16cc#	les
16dd)	|
=34	=34
8ee	shi-
8ee	-res
8.ff#	en
16ff#	de/-
=35	=35
4b;}	-faut.}
4r	.
!!pickup note to verse 2 excluded.
*-	*-
